!!!ONB: MCCC : IGF0060_00 : Extracted Monophonic Melody
!!!COM: Fauré, Gabriel
!!!OTL: Nocturne No.10 in E minor, Op.99
!!!SCT: Op.99
!!!ODT: 1908///
**kern
*staff1
=1
*clefG2
*k[f#]
*G:
*M4/4
8B[
8B]
8c
8c[
8c]
8B
8c[
8c]
=2
8e[
8e]
8d
8d[
8d]
8f#
8e[
8e]
=3
8f#[
8f#]
8e
8e[
8e]
8g
8f#[
8f#]
=4
8g[
8g]
8f#
8f#[
8f#]
8a
8g[
8g]
=5
8b[
8b]
8a
8a[
8a]
8cc
8b[
8b]
=6
8dd[
8dd]
8cc#[
8cc#]
8r
8fff#
8ccc#
8ddd
=7
8r
8ddd
8ee
8ff
8r
8f
8d
8c#
=8
8r
8B
8r
8B
8r
8B
8r
8B
=9
8b[
8b]
8r
8e
8r
8g
8r
16g
16d
=10
8r
16cc[
16cc]
2c
4B
=11
8cc[
8cc]
8r
16a
16B
8g
8a
4cc
=12
8cc[
8cc]
8r
16a
16B
8g#
8cc
4dd#
=13
8dd#[
8dd#]
8r
16g#
16B-
8r
8b
8r
16b
16f#
=14
8r
16ee[
16ee]
2e
4d#
=15
8.ee[
16ee]
8.dd#
16dd#
8dd#
8cc#
4ee
=16
8.ee[
16ee]
8.dd#
16dd#
8dd#
8ee
4gg
=17
4gg[
8gg]
8aa
4ff[
8ff]
8gg
=18
4dd#[
8dd#]
8ff
4cc#[
8cc#]
8dd#
=19
8B
8d#
8B
8a
8B
8d#
8B
8a
=20
4b
4cc[
8cc]
8g#
4b
=21
8B
8a
8B
8d#
8c
8a
8c
8d#
=22
4dd#
4ee[
8ee]
8cc
4dd#
=23
8r
16c
16F#
8r
16c
16F#
4d#
8r
16c
16F#
=24
8r
16c
16G
8r
16c[
16c]
2d#
=25
2r
8r
16d#
16A
4g[
=26
2g]
2r
=27
8r
8g#
8r
16c
16F#
8r
8f#
8r
16F#
16c#
=28
8r
8a
8r
16c#
16G
8r
8g
8r
16G
16d
=29
8r
8b-
8r
16d
16G#
8r
8g#
16r
16A
16e
16f
=30
8b[
8b]
8r
16a
16c
8r
8b
8r
16b
16c
=31
8ee[
8ee]
8r
16a
16d
8r
16ff#[
16ff#]
8ee[
8ee]
=32
8r
16cc
16f#
8ee
8ee[
8ee]
8gg
8r
16ee
16f#
=33
8gg[
8gg]
8r
16ee
16f#
8r
16aa[
16aa]
8gg[
8gg]
=34
8r
16gg
16b
8aa
8aa[
8aa]
8bb
8r
16gg
16b
=35
8ddd[
8ddd]
8r
16bb-
16cc#
8r
8fff#
8ccc#
8ddd
=36
8r
8dd
8b
8b-
8r
8ggg
8ddd
8ddd#
=37
8r
8dd#
8cc
8b
8r
8ggg#
8ddd#
8eee
=38
8r
8aaa
8eee
8fff
8r
16f[
16f]
16d[
16d]
16c#[
16c#]
=39
4B
8d
8d[
8d]
8B
8e
16e[
16e]
=40
8f#[
8f#]
8g
16g
16g[
8g]
8f
8a[
8a]
=41
8r
16g
16A
8b-
8b-[
8b-]
8a
8r
16g
16B-
=42
4b
2.B
=43
4r
4e[
8e]
8f#
8d
8e
=44
4B
4c[
8c]
8B
4c
=45
4.g#
8cc
16b[
16b]
16g[
16g]
16g#[
16g#]
16a[
16a]
=46
8e[
8e]
8f
8f
8f[
8f]
8e
8f
=47
8g
8g[
2g]
4r
=48
8r
8d
8g
8g
8g[
8g]
8f#
8g
=49
8a
8a[
2a]
8r
8c
=50
8g#
16g#[
16g#]
8a
16a
16a[
8a]
16g#[
16g#]
8a[
8a]
=51
8r
16g#
16B-
8b
8b[
8b]
8b-
8r
16g
16B
=52
8cc[
8cc]
8r
16g#
16c#
8r
16cc[
16cc]
8cc#[
8cc#]
=53
8r
16b-
16d
8dd#
8dd#[
8dd#]
8dd
8r
16a
16d#
=54
8ee[
8ee]
8r
16g
16c
8r
16dd[
16dd]
8ee[
8ee]
=55
8r
16dd#
16f
8ff#
8ff#[
8ff#]
8ff
8r
16dd#
16f#
=56
8gg[
8gg]
8r
16b-
16e
8r
16ff#[
16ff#]
8gg[
8gg]
=57
8r
16dd#
16g#
8aa
8aa[
8aa]
8gg#
8r
16ee
16a
=58
8bb
8bb[
8bb]
8aa
8r
16b
16f
8dd[
8dd]
=59
16b
8.b[
8b]
16g[
16g]
16b
8.b[
4b]
=60
16r
16ff
16aa
16bb
16aa
16ff#
16a[
16a]
4f
4r
=61
16r
16e
16g
16b
8r
16G
16g
16r
16A
16d#
16b
8r
16b
16bb
=62
1r
=63
1r
=64
4cc#
4r
4dd#
4r
=65
4ff
4r
8aa
8B
8b
8cc#[
=66
8cc#]
8c#
12a
12cc#
12dd#[
8dd#]
8d#
12b
12dd#
12ff[
=67
8ff]
8ff
8dd#
8cc#
8b
8B
8a
8b
=68
4b
4e
2r
=69
8e
8g
4g
8e
8c
8d
8f
=70
8f
8f
4e
8d
8B-
8c
8d
=71
8e[
8e]
8d
8d[
4d]
12B-
12c
12d
=72
8e[
8e]
8d
8d[
4d]
12B-
12c
12d
=73
12e
12d
12B-
4r
2r
=74
1r
=75
1r
==
*-
